public/svgs/steps/step3-disabled.svg

<svg width="25" height="24" viewBox="0 0 25 24" fill="none" xmlns="http://www.w3.org/2000/svg">
<path d="M24.168 12C24.168 10.9107 21.8457 9.95447 18.3746 9.42907C20.4587 6.60245 21.4254 4.28371 20.6548 3.51313C19.8843 2.74256 17.569 3.70928 14.7389 5.79335C14.2135 2.32224 13.2573 0 12.168 0C11.0787 0 10.1224 2.32224 9.59704 5.79335C6.77042 3.70928 4.45168 2.74256 3.6811 3.51313C2.91053 4.28371 3.87725 6.59895 5.96131 9.42907C2.49021 9.95447 0.167969 10.9107 0.167969 12C0.167969 13.0893 2.49021 14.0455 5.96131 14.5709C3.87725 17.3975 2.91053 19.7163 3.6811 20.4869C4.45168 21.2574 6.76692 20.2907 9.59704 18.2067C10.1224 21.6778 11.0787 24 12.168 24C13.2573 24 14.2135 21.6778 14.7389 18.2067C17.5655 20.2907 19.8843 21.2574 20.6548 20.4869C21.4254 19.7163 20.4587 17.4011 18.3746 14.5709C21.8457 14.0455 24.168 13.0893 24.168 12Z" fill="#F1F3F5"/>
<path d="M12.1337 16C13.8866 16 15.1528 15.0418 15.1452 13.711C15.1528 12.7376 14.5216 12.0418 13.3733 11.9011V11.8403C14.2516 11.6844 14.86 11.0646 14.8524 10.1901C14.86 8.96198 13.7763 8 12.1566 8C10.5596 8 9.35048 8.93156 9.32386 10.27H10.8752C10.898 9.673 11.4607 9.28897 12.149 9.28897C12.8372 9.28897 13.2972 9.69582 13.2934 10.289C13.2972 10.9049 12.7611 11.3232 11.9893 11.3232H11.2668V12.5209H11.9893C12.9056 12.5209 13.4683 12.9696 13.4645 13.6046C13.4683 14.2319 12.9132 14.6616 12.1376 14.6616C11.3885 14.6616 10.8258 14.2776 10.7991 13.7034H9.16797C9.19458 15.0608 10.4189 16 12.1337 16Z" fill="#CCD2D8"/>
</svg>

<svg width="25" height="24" fill="none" xmlns="http://www.w3.org/2000/svg"><path d="M24.168 12c0-1.09-2.322-2.046-5.793-2.57 2.084-2.828 3.05-5.146 2.28-5.917-.77-.77-3.086.196-5.916 2.28C14.213 2.323 13.257 0 12.168 0c-1.09 0-2.046 2.322-2.571 5.793-2.827-2.084-5.145-3.05-5.916-2.28-.77.77.196 3.086 2.28 5.916C2.491 9.954.168 10.911.168 12c0 1.09 2.322 2.046 5.793 2.57-2.084 2.828-3.05 5.146-2.28 5.917.77.77 3.086-.196 5.916-2.28.525 3.47 1.482 5.793 2.571 5.793 1.09 0 2.046-2.322 2.57-5.793 2.828 2.084 5.146 3.05 5.917 2.28.77-.77-.196-3.086-2.28-5.916 3.47-.525 5.793-1.482 5.793-2.571Z" fill="#F1F3F5"/><path d="M12.134 16c1.753 0 3.019-.958 3.011-2.289.008-.973-.623-1.67-1.772-1.81v-.06c.879-.157 1.487-.776 1.48-1.65C14.86 8.961 13.775 8 12.156 8c-1.597 0-2.807.932-2.833 2.27h1.551c.023-.597.586-.981 1.274-.981.688 0 1.148.407 1.144 1 .004.616-.532 1.034-1.304 1.034h-.722v1.198h.722c.917 0 1.48.449 1.475 1.084.004.627-.55 1.057-1.326 1.057-.75 0-1.312-.384-1.339-.959H9.168C9.195 15.061 10.418 16 12.134 16Z" fill="#CCD2D8"/></svg>
